img/svg-icons/hrc-icons_cat-agencies.svg

<?xml version="1.0" encoding="utf-8"?>
<!-- Generator: Adobe Illustrator 19.1.1, SVG Export Plug-In . SVG Version: 6.00 Build 0)  -->
<svg version="1.1" id="icons" xmlns="http://www.w3.org/2000/svg" xmlns:xlink="http://www.w3.org/1999/xlink" x="0px" y="0px"
	 viewBox="0 0 84 58" style="enable-background:new 0 0 84 58;" xml:space="preserve">
<g id="arrow-large-r">
</g>
<g id="link-external">
</g>
<g id="link-list">
</g>
<g id="download">
</g>
<g id="info">
</g>
<g id="close">
</g>
<g id="dismiss">
</g>
<g id="search">
</g>
<g id="filter-open">
</g>
<g id="filter-close">
</g>
<g id="cat-agencies">
	<polygon style="fill:#6E848E;" points="46,18.5 50.1,11.5 46,4.5 38,4.5 33.9,11.5 38,18.5 	"/>
	<polygon style="fill:#6E848E;" points="27,25.9 27,24.2 28.8,24.2 28.8,23.5 33.7,23.5 36.4,18.9 32.4,12 24.3,12 20.3,18.9 
		24.3,25.9 	"/>
	<polygon style="fill:#6E848E;" points="51.6,25.9 59.7,25.9 63.7,18.9 59.7,12 51.6,12 47.6,18.9 	"/>
	<polygon style="fill:#6E848E;" points="51.6,27.5 47.6,34.5 51.6,41.5 59.7,41.5 63.7,34.5 59.7,27.5 	"/>
	<path style="fill:#6E848E;" d="M47.1,42.6v-0.4v-4h-1.4v-2.9h-1.4v-2.9h-1.4v-2.9H42v-2.9h-1.6v-1.6h-1.8v-0.7h-8.8v0.7h-1.8v1.6
		h-1.6v2.9h-0.9v2.9H24v2.9h-1.4v2.9h-1.4v4v0.4v8.1h-0.9v2.8H48v-2.8h-0.9V42.6z M27.2,27.7h13.9v1.9H27.2V27.7z M26.3,30.5H42v1.9
		H26.3V30.5z M24.9,33.4h18.5v1.9H24.9V33.4z M23.5,36.2h21.2v1.9H23.5V36.2z M24,50.7H23v-8.1H24V50.7z M31.1,50.7h-0.9v-8.1h0.9
		V50.7z M38.2,50.7h-0.9v-8.1h0.9V50.7z M45.3,50.7h-0.9v-8.1h0.9V50.7z M46.2,41.6h-24v-2.5h24V41.6z"/>
</g>
<g id="fail">
</g>
<g id="pass">
</g>
<g id="smart-t-fail">
</g>
<g id="smart-r-fail">
</g>
<g id="smart-a-fail">
</g>
<g id="smart-m-fail">
</g>
<g id="smart-s-fail">
	<g id="smart-s-fail_1_">
	</g>
</g>
<g id="smart-t">
</g>
<g id="smart-r">
</g>
<g id="smart-a">
</g>
<g id="smart-m">
</g>
<g id="smart-s">
	<g id="smart-s_1_">
	</g>
</g>
<g id="hrc-logo">
</g>
</svg>

<svg xmlns="http://www.w3.org/2000/svg" viewBox="0 0 84 58"><title>hrc-icons</title><polygon points="46 18.5 50 11.5 46 4.5 38 4.5 34 11.5 38 18.5 46 18.5" style="fill:#6e848e"/><polygon points="27 25.9 27 24.2 28.8 24.2 28.8 23.5 33.7 23.5 36.4 18.9 32.4 12 24.3 12 20.3 18.9 24.3 25.9 27 25.9" style="fill:#6e848e"/><polygon points="51.6 25.9 59.7 25.9 63.7 18.9 59.7 12 51.6 12 47.6 18.9 51.6 25.9" style="fill:#6e848e"/><polygon points="51.6 27.5 47.6 34.5 51.6 41.5 59.7 41.5 63.7 34.5 59.7 27.5 51.6 27.5" style="fill:#6e848e"/><path d="M47.1,42.6V38.2H45.7V35.3H44.3V32.5H42.9V29.6H42V26.7H40.4V25.1H38.6V24.4H29.7v0.7H27.9v1.6H26.3v2.9H25.4v2.9H24v2.9H22.6v2.9H21.2V50.7H20.3v2.8H48V50.7H47.1V42.6ZM27.2,27.7H41.1v1.9H27.2V27.7Zm-0.9,2.9H42v1.9H26.3V30.5Zm-1.4,2.9H43.4v1.9H24.9V33.4Zm-1.4,2.9H44.8v1.9H23.5V36.2ZM24,50.7H23V42.6H24v8.1Zm7.1,0H30.2V42.6h0.9v8.1Zm7.1,0H37.3V42.6h0.9v8.1Zm7.1,0H44.4V42.6h0.9v8.1Zm0.9-9.1h-24V39.1h24v2.5Z" style="fill:#6e848e"/></svg>
